X: 262
M: C
L: 1/8
K: G
d |\
d2d2 (dc).B.c | (de)(fg) (ed)Bc | d2d2 (dc)(Bc) | .d.e.f.g (ed)(cB) |
(ce).a.c (Bd).g.B | (Ac).B.c (dc).B.A | g2(fe) edcB | ABcA B2G |]


